!!!!SEGMENT: pl-kc--40102-iii-1-saf--002-052_zielenski-mikolaj--communiones-totius-anni-in-epiphania-domini-vidimus-stellam-eius.krn
!!!cenid: 16xx:1583
!!!COM: Zieleński, Mikołaj
!!!COM-rismID: pe30013481
!!!CDT: <1611->1611
!!!CNT: Polish
!!!GTL: Communiones totius anni
!!!OTL: In Epiphania Domini/Vidimus stellam eius
!!!OMV: 052
!!!PDT: 1611
!!!AGN:
!!!SMS-siglum: PL-Kc
!!!SMS-shelfmark: 40102 III/1 Saf.
!!!SMS-shelfwork: 002-052 G
!!!SMS-variant:
!!!SMS-altvar:
!!!NIFC-rismSourceID: 990069887
!!!NIFC-islandoraID:
!!!URL-pdf-islandora:
!!!URL-scan: https://cyfrowe.mnk.pl/dlibra/publication/24235/edition/23926/content?ref=desc @EN{Scan on The National Museum in Krakow Website} @PL{Skany w portalu Biblioteka Cyfrowa Muzeum Narodowego w Krakowie}
!!!ONB-nifc: UWAGA: str. 73-74. Numer w źródle: 60. Uwaga: W xml metrum 2/1 do źródłowego C| i odpowiednio 3/1 do 3/2
!!!AIN: 4 organ
!!!key:
**kern	**kern	**kern	**kern
*group1	*group1	*group1	*group1
*part4	*part3	*part2	*part1
*staff4	*staff3	*staff2	*staff1
*I""Organo	*I""Organo	*I""Organo	*I""Organo
*I''org	*I''org	*I''org	*I''org
*Iorgan	*Iorgan	*Iorgan	*Iorgan
*ICklav	*ICklav	*ICklav	*ICklav
*clefF4	*clefC3	*clefC3	*clefG2
*k[b-]	*k[b-]	*k[b-]	*k[b-]
*g:	*g:	*g:	*g:
*M2/1	*M2/1	*M2/1	*M2/1
*met(C|)	*met(C|)	*met(C|)	*met(C|)
=1	=1	=1	=1
!	!	!	!LO:TX:t=60. In Epiphania Domini. à 6.   Incipiunt Sex voces
!	!	!	!LO:TX:b:t=Vidimus ſtellamelus
1G	1d	00r	00r
2G\	2d\	.	.
2GG/	2d\	.	.
=2-	=2-	=2-	=2-
2C/	4c/	.	.
.	4B-/	.	.
2GG/	4B-/	.	.
.	8A/	.	.
.	8G/	.	.
1D	4A/	.	.
.	4B-/	.	.
.	2A/	.	.
=3	=3	=3	=3
2.GG/	2G/	00r	00r
.	2d\	.	.
4G\	.	.	.
4E-X\	2e-X\	.	.
8D\	.	.	.
8C/	.	.	.
8BB-/	2d\	.	.
8C/	.	.	.
8D/	.	.	.
8BB-/	.	.	.
=4-	=4-	=4-	=4-
2F\	1c	.	.
2FF/	.	.	.
2.BB-/	2.d\	.	.
4BB-/	4d\	.	.
=5	=5	=5	=5
2C/	2c/	0r	0r
2AA/	2c/	.	.
*	*lig	*	*
2BB-/	1B-	.	.
2GG/	.	.	.
=6-	=6-	=6-	=6-
1D	1A	1r	1r
*	*Xlig	*	*
1GG	1G	1g	1dd
=7	=7	=7	=7
00r	00r	2g\	2dd\
.	.	2G/	2dd\
.	.	2c/	4cc\
.	.	.	4b-/
.	.	2G/	4b-/
.	.	.	8a/
.	.	.	8g/
=8-	=8-	=8-	=8-
.	.	1d	4a/
.	.	.	4b-/
.	.	.	2a/
.	.	2.G/	2g/
.	.	.	2dd\
.	.	4g\	.
=9	=9	=9	=9
*custos:D	*custos:c	*	*
00r	00r	2e-X\	4ee-X\
.	.	.	4dd\
.	.	2B-/	4dd\
.	.	.	8cc\
.	.	.	8b-\
.	.	2f\	4cc\
.	.	.	4dd\
.	.	2F/	2cc\
=10-	=10-	=10-	=10-
.	.	2.B-/	2.dd\
.	.	4B-/	4dd\
.	.	2f\	2cc\
*	*	*custos:g	*custos:b
.	.	2d\	2dd\
!!LO:PB:g=original
=11	=11	=11	=11
1r	1r	2g\	1b-
.	.	2G/	.
1D	1d	1d	1a
=12-	=12-	=12-	=12-
2D/	2d\	2r	2r
2D/	2d\	2a\	2ff\
2F\	1c	2a\	2ff\
2FF/	.	2a\	2ff\
=13	=13	=13	=13
4C/	2r	2g\	2ee\
4D/	.	.	.
4E\	2c/	2g\	2ee\
4C/	.	.	.
4G\	1d	1g	1dd
4GG/	.	.	.
4BB-/	.	.	.
4C/	.	.	.
=14-	=14-	=14-	=14-
1D	1d	2f\	2dd\
.	.	2d\	2ff\
2r	2r	2a\	2ee\
2D/	2f\	2a\	2dd\
=15	=15	=15	=15
2A\	2e\	2a\	2cc#X\
2D/	2d\	2f#X\	2dd\
2AA/	2c#X/	2r	2r
2D/	2d\	2a\	2ff\
=16-	=16-	=16-	=16-
2r	2r	2a\	2ee\
2D/	2f\	2a\	2dd\
2A\	2e\	2a\	2cc#X\
2D/	2d\	2f#X\	2dd\
=17	=17	=17	=17
2AA/	2c#X/	2r	2r
2D/	2d\	2d\	2ff\
2r	2r	1.B-	4ff\
.	.	.	4ee\
2BB-/	1B-/	.	4dd\
.	.	.	4cc\
=18-	=18-	=18-	=18-
2.E-X\	.	.	4b-/
.	.	.	4g/
.	4cny/	1G	2.ee-X\
4D/	4d\	.	.
2C/	4e-X\	.	.
.	4c/	.	4ee-\
2BBn/	2d\	4g\	[<2dd\
.	.	4f\	.
=19	=19	=19	=19
1C	1e-X	4e-X\	4dd\]
.	.	4d\	8cc\
.	.	.	8b-\
.	.	2c/	2cc\
2GG/	1d	1g	1dd
2G\	.	.	.
=20-	=20-	=20-	=20-
2.E-X\	2r	2r	0r
.	2B-/	2g\	.
4D/	.	.	.
1C	2.c/	2.e-X\	.
.	4B-/	4d\	.
=21	=21	=21	=21
2r	1.A	1c	00r
2F\	.	.	.
2.D/	.	2r	.
.	2A/	2f\	.
4C/	.	.	.
=22-	=22-	=22-	=22-
2BB-/	2.B-/	2.d\	.
2BB-/	.	.	.
.	4A/	4c/	.
2E\	2G/	2B-/	.
2C/	2c/	2e\	.
=23	=23	=23	=23
2C/	2c/	2e\	00r
2BB-/	2G/	2d\	.
2AA/	2A/	2c/	.
2AA/	2c/	2A/	.
=24-	=24-	=24-	=24-
1GG	2B-/	2B-/	.
.	4B-/	4d\	.
.	4B-/	4d\	.
4D/	2A/	2f\	.
4D/	.	.	.
2F\	2A/	2c/	.
=25	=25	=25	=25
2C/	4c/	4e\	00r
.	4c/	4e\	.
4E\	2c/	2g\	.
4E\	.	.	.
2G\	2B-/	2d\	.
4D/	4r	4r	.
[4D\	2d\	2f\	.
=26-	=26-	=26-	=26-
4D/]	.	.	.
4AA/	4c/	4e\	.
4BB-/	1B-	1d	.
4C/	.	.	.
4D/	.	.	.
4BB-/	.	.	.
2F\	2A/	2c/	.
=27	=27	=27	=27
4C/	2G/	2.e-X\	1r
4D/	.	.	.
4E-X\	2.c/	.	.
4C/	.	8f\	.
.	.	8e-\	.
2GG/	.	2d\	2r
!	!LO:N:acc=#	!	!
.	8Bn/	.	.
.	8A/	.	.
2G\	2B/	2d\	2dd\
=28-	=28-	=28-	=28-
1C	1c	2c/	2.ee-X\
.	.	2c/	.
.	.	.	4dd\
1r	1r	2.f\	2cc\
.	.	.	2cc\
.	.	4eny\	.
=29	=29	=29	=29
00r	00r	1d	2.ff\
.	.	.	4ee\
.	.	2r	2.dd\
.	.	2G/	.
.	.	.	4cc\
=30-	=30-	=30-	=30-
.	.	2.e-X\	2b-/
.	.	.	2b-/
.	.	4d\	.
.	.	2c/	2.cc\
.	.	2c/	.
.	.	.	4b-/
=31	=31	=31	=31
00r	00r	2d\	2a/
.	.	4B-/	1dd
.	.	4c/	.
.	.	4d\	.
.	.	4B-/	.
.	.	2e\	2b-/
=32-	=32-	=32-	=32-
.	.	4c/	2.ee-X\
.	.	4d\	.
.	.	4e-X\	.
.	.	4c/	8ff\
.	.	.	8ee-\
.	.	2g\	2dd\
.	.	2G/	2dd\
=33	=33	=33	=33
*custos:BB-	*custos:f	*	*
00r	00r	2c/	2cc\
.	.	4f\	4cc\
.	.	4f\	4cc\
.	.	2d\	2dd\
.	.	2.e-X\	2.b-/
=34-	=34-	=34-	=34-
.	.	.	.
.	.	2c/	2ee\
.	.	4c/	4ee\
.	.	2d\	2dd\
*	*	*custos:f	*custos:cc
.	.	2B-/	2dd\
!!LO:LB:g=original
=35	=35	=35	=35
1r	1r	2f\	2cc\
.	.	2F/	2cc\
2r	2r	2B-/	1dd
2BB-/	2f\	4B-/	.
.	.	4A/	.
=36-	=36-	=36-	=36-
2.C/	2.e\	4G/	2r
.	.	4F/	.
.	.	2G/	2g/
4BB-/	4d\	.	.
2AA/	4c/	2A/	2.cc\
.	4B-/	.	.
2AA/	4A/	2e\	.
.	4G/	.	4b-/
=37	=37	=37	=37
2.D/	2F/	1.f	2a/
.	2A/	.	2a/
4C/	.	.	.
2BB-/	1.B-	.	2.dd\
2GG/	.	2g\	.
.	.	.	4cc\
=38-	=38-	=38-	=38-
2.E-X\	.	2.g\	2b-/
.	2B-/	.	2g/
4D/	.	4f\	.
1C	2.c/	4e-X\	2.ee\
.	.	4d\	.
.	.	2c/	.
.	4B-/	.	4dd\
=39	=39	=39	=39
2r	4A/	2c/	2cc\
.	4G/	.	.
1F	1A	1f	1cc
2D/	2F/	2f\	2ff\
=40-	=40-	=40-	=40-
2E-X\	2G/	2c/	2ee-X\
2F\	2F/	2c/	2cc\
1BB-	1F	2f\	2dd\
.	.	4B-/	4dd\
.	.	4B-/	4dd\
=41	=41	=41	=41
2r	2r	2c/	8g/
.	.	.	8f/
.	.	.	8g/
.	.	.	8a/
4GG/	4G/	2d\	2b-/
4GG/	4G/	.	.
8D/	2A/	2r	2a/
8C/	.	.	.
8D/	.	.	.
8E\	.	.	.
2F\	2A/	4c/	4f/
.	.	4c/	4f/
=42-	=42-	=42-	=42-
2FF/	2r	2c/	8cc\
.	.	.	8b-\
.	.	.	8cc\
.	.	.	8dd\
4C/	4c/	1g	2ee-X\
4C/	4c/	.	.
8E-X\	[y1B-	.	2b-/
8D\	.	.	.
8E-X\	.	.	.
8F\	.	.	.
2G\	.	4d\	4g/
.	.	4d\	4g/
=43	=43	=43	=43
!	!LO:N:xstem:cue:vis=4	!	!
2G\	2B-/]	2d\	8b-/
.	.	.	8a/
.	.	.	8b-\
.	.	.	8cc\
2GG/	2B-/	2g\	8dd\
.	.	.	8cc\
.	.	.	8dd\
.	.	.	8ee\
1.D	4A/	2a\	4ff\
.	4D/	.	4ff\
.	2.d\	2.g\	1dd\
=44-	=44-	=44-	=44-
.	.	.	.
.	4A/	8f#X\	.
.	.	8e\	.
2D/	2d\	2f#\	2dd\
!	!	!	!LO:N:acc=#
1GG	2d\	2g\	2bn/
!	!LO:N:acc=#	!	!
.	4Bn/	4d\	4dd\
.	4B/	4d\	4dd\
=45	=45	=45	=45
2r	2c/	2e-X\	8cc\
.	.	.	8dd\
.	.	.	8ee-X\
.	.	.	8cc\
4G\	1G	2d\	2dd\
4G\	.	.	.
8C/	.	2r	2cc\
8D\	.	.	.
8E-X\	.	.	.
8C/	.	.	.
!	!LO:N:acc=#	!	!
2G\	4Bn/	4g\	4dd\
.	4B/	4g\	4dd\
=46-	=46-	=46-	=46-
2C/	2c/	2e-X\	8cc\
.	.	.	8dd\
.	.	.	8ee-X\
.	.	.	8cc\
4G\	2G/	2d\	2dd\
4G\	.	.	.
8C/	2G/	2e-X\	2cc\
8D/	.	.	.
8E-X\	.	.	.
8C/	.	.	.
!	!	!	!LO:N:acc=#
2G\	2G/	2d\	4.bn/
.	.	.	8b/
=47	=47	=47	=47
4C/	4c/	4e-X\	4cc\
2C/	2c/	2c/	2ee-X\
4C/	4c/	4c/	4ee-\
2E-X\	2B-/	2G/	2ee-\
2BB-/	2d\	2d\	1dd\
=48-	=48-	=48-	=48-
1.C	1.e-X	4g\	.
.	.	4f\	.
.	.	4e-X\	4cc\
!	!	!	!LO:N:acc=#
.	.	4d\	4bn/
.	.	2c/	4cc\
.	.	.	4g/
2C/	1c\	2e-X\	2cc\
=49-	=49-	=49-	=49-
0GGl	.	0dl	0ddl
!	!LO:N:acc=#	!	!
.	4Bn/	.	.
.	4A/	.	.
.	1Bl	.	.
==	==	==	==
*-	*-	*-	*-
!!!system-decoration: *
!!!RDF**kern: l = terminal long
!!!RDF**kern: > = above
!!!RDF**kern: < = below
!!!ENC: Andrzej Gręziak
!!!END: 2021-12-22
!!!EED: Andrzej Borzym
!!!EEV: 2021-12-27
!!!YEC: Copyright 2022 Narodowy Instytut Fryderyka Chopina (https://polishscores.org)
!!!YEM: Licence CC BY 4.0 (https://creativecommons.org/licenses/by/4.0)
